resources/images/menu_support_enforcer.svg

<svg xmlns="http://www.w3.org/2000/svg" width="16" height="16" viewBox="0 0 16 16"><path d="M2.5,3.5v11m2-11H.5v11h4Zm8,0v11m2-11h-4v11h4Z" style="fill:none;stroke:#009688;stroke-linecap:round;stroke-linejoin:round"/><rect x="0.5" y="0.5" width="14" height="3" style="fill:none;stroke:#949494;stroke-linecap:round;stroke-linejoin:round"/></svg>

<svg width="16" height="16" viewBox="0 0 16 16" fill="none" xmlns="http://www.w3.org/2000/svg">
<path d="M2.5 3.5V14.5M12.5 3.5V14.5M4.5 3.5H0.5V14.5H4.5V3.5ZM14.5 3.5H10.5V14.5H14.5V3.5Z" stroke="#FF7C3F" stroke-linecap="round" stroke-linejoin="round"/>
<path d="M14.5 0.5H0.5V3.5H14.5V0.5Z" stroke="#949494" stroke-linecap="round" stroke-linejoin="round"/>
</svg>
